Origami/24x24/apps/trashindicator.svg

<svg width="24" height="24" version="1" xmlns="http://www.w3.org/2000/svg">
 <rect x="4" y="4.5" width="16" height="17.5" rx="1.067" ry="1.03" style="fill:#518140"/>
 <rect x="3" y="2.5" width="18" height="4" rx="1" ry="1" style="fill:#629c4d"/>
 <rect x="11" y="9" width="2" height="10" rx=".5" ry=".5" style="opacity:.4"/>
 <rect x="15" y="9" width="2" height="10" rx=".5" ry=".5" style="opacity:.4"/>
 <rect x="7" y="9" width="2" height="10" rx=".5" ry=".5" style="opacity:.4"/>
 <rect x="9" y="2" width="6" height="2" style="fill:#629c4d"/>
 <path d="m4 2.5c-0.554 0-1 0.446-1 1v0.5c0-0.554 0.446-1 1-1h16c0.554 0 1 0.446 1 1v-0.5c0-0.554-0.446-1-1-1h-16z" style="fill:#ffffff;opacity:.2"/>
 <path d="m3 5.5v0.5c0 0.554 0.446 1 1 1h16c0.554 0 1-0.446 1-1v-0.5c0 0.554-0.446 1-1 1h-16c-0.554 0-1-0.446-1-1z" style="opacity:.2"/>
 <path d="m4 20.9705v0.5c0 0.5705 0.4757333 1.0295 1.0666667 1.0295h13.866666c0.590934 0 1.066667-0.459 1.066667-1.0293v-0.5c0 0.5705-0.475733 1.0295-1.066667 1.0295h-13.866666c-0.5909334 0-1.0666667-0.459-1.0666667-1.0295z" style="opacity:.2"/>
 <path d="m9 2v0.5h6v-0.5h-6z" style="fill:#ffffff;opacity:.1"/>
</svg>

<svg xmlns="http://www.w3.org/2000/svg" width="24" height="24" version="1">
 <rect style="fill:#518140" width="16" height="17.5" x="4" y="4.5" rx="1.067" ry="1.03"/>
 <rect style="fill:#629c4d" width="18" height="4" x="3" y="2.5" rx="1" ry="1"/>
 <rect style="opacity:0.4" width="2" height="10" x="11" y="9" rx=".5" ry=".5"/>
 <rect style="opacity:0.4" width="2" height="10" x="15" y="9" rx=".5" ry=".5"/>
 <rect style="opacity:0.4" width="2" height="10" x="7" y="9" rx=".5" ry=".5"/>
 <rect style="fill:#629c4d" width="6" height="2" x="9" y="2"/>
 <path style="opacity:0.2;fill:#ffffff" d="m 4,2.5 c -0.554,0 -1,0.446 -1,1 L 3,4 C 3,3.446 3.446,3 4,3 l 16,0 c 0.554,0 1,0.446 1,1 l 0,-0.5 c 0,-0.554 -0.446,-1 -1,-1 l -16,0 z"/>
 <path style="opacity:0.2" d="M 3,5.5 3,6 c 0,0.554 0.446,1 1,1 l 16,0 c 0.554,0 1,-0.446 1,-1 l 0,-0.5 c 0,0.554 -0.446,1 -1,1 L 4,6.5 C 3.446,6.5 3,6.054 3,5.5 Z"/>
 <path style="opacity:0.2" d="m 4,20.9705 0,0.5 C 4,22.041 4.4757333,22.5 5.0666667,22.5 l 13.8666663,0 C 19.524267,22.5 20,22.041 20,21.4707 l 0,-0.5 c 0,0.5705 -0.475733,1.0295 -1.066667,1.0295 l -13.8666663,0 C 4.4757333,22.0002 4,21.5412 4,20.9707 Z"/>
 <path style="opacity:0.1;fill:#ffffff" d="m 9,2 0,0.5 6,0 L 15,2 9,2 Z"/>
</svg>
